dist/svg/vaccume-line.svg

<svg xmlns="http://www.w3.org/2000/svg" viewBox="0 0 24 24"><path d="M11.435 2.403c-1.517.159-2.841 1.254-3.255 2.69-.037.128-.702 3.134-1.478 6.68l-1.41 6.447-.756.021c-.828.023-.913.045-1.11.279-.344.409-.146 1.056.365 1.198.095.027 1 .041 2.489.041 2.193-.001 2.35-.005 2.5-.075.486-.225.619-.807.267-1.178-.224-.236-.265-.245-1.281-.259l-.935-.014.022-.106c.239-1.191 2.769-12.624 2.829-12.783.198-.53.597-.958 1.138-1.221.433-.21.67-.259 1.136-.232.62.035 1.122.255 1.524.669q.381.393.567.903c.068.186.087.331.09.677.002.38-.055.781-.412 2.925l-.415 2.485-.411.205a4.76 4.76 0 0 0-2.48 3.015c-.141.53-.192 1.115-.17 1.98.017.67.031.784.124 1.07.144.439.355.78.691 1.116.334.334.673.545 1.116.694l.32.107 1.689.014 1.689.014.24.23c.303.289.653.498 1.062.633.277.091.387.105.82.105s.543-.014.82-.105c.44-.146.781-.357 1.116-.692.333-.333.544-.672.695-1.116l.109-.32v-5l-.109-.32a2.74 2.74 0 0 0-.696-1.116c-.472-.471-.961-.709-1.606-.783-.192-.022-1.047-.04-1.9-.041h-1.551l.022-.09c.05-.217.736-4.478.761-4.73.086-.873-.275-1.939-.914-2.701-.798-.952-2.048-1.448-3.312-1.316m7.093 10.47c.239.118.481.36.599.599.088.177.094.24.105 1.117l.012.929-.252-.094a2.73 2.73 0 0 0-2.933.635c-.513.513-.761 1.063-.807 1.791l-.024.39h-1.233c-1.137 0-1.249-.006-1.448-.081-.258-.096-.542-.362-.674-.63-.09-.182-.093-.224-.093-1.149.001-.877.008-.987.091-1.272.153-.531.375-.91.787-1.343.507-.533 1.083-.846 1.775-.965.103-.017 1.024-.029 2.047-.026 1.857.006 1.86.006 2.048.099m.004 4.003c.235.114.478.357.595.596.133.27.133.787 0 1.057-.467.948-1.805.945-2.24-.005-.318-.696.015-1.454.753-1.712.214-.074.675-.041.892.064" fill-rule="evenodd"/></svg>

<svg fill="none" xmlns="http://www.w3.org/2000/svg" viewBox="0 0 24 24"><path d="M11.435 2.403 C 9.918 2.562,8.594 3.657,8.180 5.093 C 8.143 5.221,7.478 8.227,6.702 11.773 L 5.292 18.220 4.536 18.241 C 3.708 18.264,3.623 18.286,3.426 18.520 C 3.082 18.929,3.280 19.576,3.791 19.718 C 3.886 19.745,4.791 19.759,6.280 19.759 C 8.473 19.758,8.630 19.754,8.780 19.684 C 9.266 19.459,9.399 18.877,9.047 18.506 C 8.823 18.270,8.782 18.261,7.766 18.247 L 6.831 18.233 6.853 18.127 C 7.092 16.936,9.622 5.503,9.682 5.344 C 9.880 4.814,10.279 4.386,10.820 4.123 C 11.253 3.913,11.490 3.864,11.956 3.891 C 12.576 3.926,13.078 4.146,13.480 4.560 C 13.733 4.821,13.924 5.124,14.047 5.463 C 14.115 5.649,14.134 5.794,14.137 6.140 C 14.139 6.520,14.082 6.921,13.725 9.065 L 13.310 11.550 12.899 11.755 C 11.676 12.363,10.768 13.466,10.419 14.770 C 10.278 15.300,10.227 15.885,10.249 16.750 C 10.266 17.420,10.280 17.534,10.373 17.820 C 10.517 18.259,10.728 18.600,11.064 18.936 C 11.398 19.270,11.737 19.481,12.180 19.630 L 12.500 19.737 14.189 19.751 L 15.878 19.765 16.118 19.995 C 16.421 20.284,16.771 20.493,17.180 20.628 C 17.457 20.719,17.567 20.733,18.000 20.733 C 18.433 20.733,18.543 20.719,18.820 20.628 C 19.260 20.482,19.601 20.271,19.936 19.936 C 20.269 19.603,20.480 19.264,20.631 18.820 L 20.740 18.500 20.740 16.000 L 20.740 13.500 20.631 13.180 C 20.479 12.735,20.268 12.396,19.935 12.064 C 19.463 11.593,18.974 11.355,18.329 11.281 C 18.137 11.259,17.282 11.241,16.429 11.240 L 14.878 11.240 14.900 11.150 C 14.950 10.933,15.636 6.672,15.661 6.420 C 15.747 5.547,15.386 4.481,14.747 3.719 C 13.949 2.767,12.699 2.271,11.435 2.403 M18.528 12.873 C 18.767 12.991,19.009 13.233,19.127 13.472 C 19.215 13.649,19.221 13.712,19.232 14.589 L 19.244 15.518 18.992 15.424 C 17.954 15.036,16.841 15.277,16.059 16.059 C 15.546 16.572,15.298 17.122,15.252 17.850 L 15.228 18.240 13.995 18.240 C 12.858 18.240,12.746 18.234,12.547 18.159 C 12.289 18.063,12.005 17.797,11.873 17.529 C 11.783 17.347,11.780 17.305,11.780 16.380 C 11.781 15.503,11.788 15.393,11.871 15.108 C 12.024 14.577,12.246 14.198,12.658 13.765 C 13.165 13.232,13.741 12.919,14.433 12.800 C 14.536 12.783,15.457 12.771,16.480 12.774 C 18.337 12.780,18.340 12.780,18.528 12.873 M18.532 16.876 C 18.767 16.990,19.010 17.233,19.127 17.472 C 19.260 17.742,19.260 18.259,19.127 18.529 C 18.660 19.477,17.322 19.474,16.887 18.524 C 16.569 17.828,16.902 17.070,17.640 16.812 C 17.854 16.738,18.315 16.771,18.532 16.876 " stroke="none" fill-rule="evenodd" fill="currentColor"/></svg>
